assets/AquaAndBrown.3DL
#Created by: Adobe Photoshop Export Color Lookup Plugin
#Description: koe3
0 68 136 205 273 341 409 477 546 614 682 750 818 887 955 1023
514 514 514
488 565 613
427 617 726
353 662 832
228 732 970
32 787 1108
0 870 1214
0 948 1378
10 1028 1519
0 1121 1689
0 1236 1879
3 1339 2052
6 1471 2306
10 1625 2601
3 1808 2923
0 1991 3308
633 649 568
597 668 655
517 710 758
405 761 877
170 841 1012
0 899 1140
0 973 1259
0 1041 1410
19 1105 1548
0 1182 1677
0 1285 1879
0 1388 2059
10 1503 2332
0 1657 2598
3 1821 2935
16 2007 3299
768 784 687
729 809 745
665 838 848
562 880 954
382 928 1063
0 992 1195
13 1041 1330
0 1111 1442
6 1185 1577
3 1265 1722
0 1339 1885
10 1458 2094
6 1561 2338
10 1705 2624
6 1863 2939
19 2030 3308
903 935 739
870 948 793
816 976 880
707 1015 1005
501 1050 1124
122 1095 1230
6 1137 1391
0 1211 1535
0 1272 1635
0 1359 1802
0 1429 1924
6 1542 2117
0 1644 2354
0 1773 2640
3 1921 2942
22 2081 3340
1063 1086 800
1037 1102 845
992 1134 944
877 1169 1028
646 1211 1175
372 1230 1310
13 1265 1458
3 1304 1551
6 1371 1705
0 1439 1850
0 1519 1978
3 1641 2181
6 1747 2390
3 1866 2675
0 1982 2968
0 2133 3337
1204 1237 851
1188 1262 887
1156 1269 980
1063 1317 1066
864 1333 1169
562 1397 1333
0 1416 1487
0 1436 1609
0 1487 1747
0 1538 1892
0 1638 2040
13 1722 2242
0 1860 2428
6 1953 2675
16 2068 2990
16 2184 3356
1359 1410 906
1355 1436 922
1326 1442 1012
1236 1468 1079
1063 1503 1188
861 1532 1359
385 1603 1529
13 1612 1696
0 1638 1821
6 1686 1959
13 1754 2123
16 1856 2306
3 1966 2502
10 2072 2740
13 2145 3025
3 2251 3360
1513 1593 944
1506 1603 976
1490 1619 1025
1420 1648 1124
1298 1664 1230
1098 1673 1352
880 1731 1535
279 1802 1741
6 1811 1879
6 1831 2027
13 1908 2197
3 1991 2383
26 2091 2563
3 2178 2769
10 2258 3032
0 2309 3395
1715 1763 1021
1676 1779 1053
1660 1792 1111
1609 1802 1172
1506 1831 1281
1362 1844 1407
1137 1882 1522
886 1927 1725
45 1995 1924
10 2033 2094
0 2075 2255
10 2155 2447
3 2216 2621
10 2309 2842
10 2402 3080
10 2428 3408
1869 1946 1089
1876 1959 1137
1831 1972 1153
1792 1985 1240
1712 1998 1323
1596 2043 1449
1410 2052 1577
1159 2110 1731
870 2152 1917
0 2248 2158
0 2255 2332
10 2325 2505
3 2367 2672
10 2463 2881
3 2557 3135
3 2605 3462
2088 2184 1188
2040 2168 1204
2030 2184 1240
2004 2200 1301
1937 2213 1381
1847 2216 1478
1670 2267 1632
1397 2303 1738
1175 2338 1950
755 2377 2165
0 2489 2425
3 2521 2576
16 2579 2759
16 2627 2977
0 2714 3173
16 2778 3517
2306 2402 1272
2293 2406 1294
2284 2412 1326
2242 2422 1394
2168 2454 1452
2072 2444 1564
1924 2486 1660
1747 2492 1824
1429 2553 1946
1121 2592 2139
524 2627 2383
0 2743 2656
19 2775 2826
16 2830 3035
16 2913 3270
3 2997 3527
2531 2643 1378
2528 2659 1410
2492 2669 1416
2479 2675 1494
2412 2679 1558
2319 2707 1644
2203 2701 1738
2014 2749 1866
1815 2762 2036
1468 2794 2161
1098 2846 2361
77 2881 2605
0 3003 2900
13 3042 3099
0 3109 3318
6 3221 3604
2794 2923 1548
2807 2936 1570
2778 2923 1590
2743 2939 1641
2685 2958 1705
2592 2952 1766
2489 2968 1856
2322 2981 1953
2123 3000 2078
1882 3013 2255
1490 3064 2399
1044 3106 2601
10 3160 2865
10 3282 3176
3 3337 3376
10 3449 3677
3070 3215 1786
3083 3215 1824
3051 3225 1834
3038 3231 1869
2993 3228 1924
2897 3247 1940
2788 3247 2014
2656 3247 2100
2425 3260 2161
2245 3276 2367
1921 3324 2502
1535 3347 2662
964 3385 2881
13 3440 3138
0 3597 3456
16 3684 3742
3404 3533 2168
3414 3549 2181
3382 3536 2174
3356 3549 2200
3305 3546 2213
3212 3565 2248
3151 3536 2290
3000 3546 2296
2814 3539 2354
2579 3546 2431
2473 3581 2698
2075 3600 2775
1657 3665 2945
851 3713 3170
13 3742 3440
0 3934 3774
671 604 556
633 629 671
511 662 752
353 681 851
157 748 957
0 838 1121
0 890 1230
0 976 1388
13 1050 1535
0 1150 1680
0 1253 1863
0 1355 2065
0 1487 2316
0 1638 2605
0 1818 2939
0 1991 3308
768 700 649
716 716 716
613 745 800
501 787 899
289 835 1021
0 915 1156
0 973 1275
0 1050 1407
0 1127 1545
3 1208 1705
13 1307 1892
3 1391 2062
10 1535 2325
13 1677 2614
3 1831 2942
13 2011 3302
854 803 684
829 835 784
736 883 867
620 915 986
456 964 1095
67 992 1188
3 1060 1346
10 1114 1465
3 1201 1596
6 1278 1725
0 1362 1901
10 1461 2097
10 1577 2354
3 1715 2627
16 1872 2935
0 2052 3315
989 951 752
944 964 825
899 993 903
771 1041 1041
591 1073 1134
263 1105 1288
0 1147 1394
0 1217 1526
0 1275 1641
10 1355 1799
16 1445 1940
13 1554 2126
16 1664 2373
0 1789 2656
6 1930 2948
16 2088 3340
1114 1098 803
1082 1127 864
1031 1134 931
938 1169 1041
768 1211 1220
456 1230 1323
3 1278 1458
3 1310 1570
3 1387 1712
6 1442 1856
16 1535 1995
3 1641 2181
0 1763 2396
10 1872 2675
0 1998 2984
3 2136 3340
1269 1269 883
1240 1272 903
1198 1291 983
1108 1327 1073
941 1352 1169
674 1413 1378
119 1413 1500
3 1442 1612
6 1506 1763
10 1558 1908
0 1654 2055
0 1741 2245
3 1866 2438
10 1975 2679
3 2081 3003
0 2203 3360
1407 1423 903
1388 1436 938
1359 1455 1012
1272 1477 1098
1140 1497 1201
912 1548 1359
488 1599 1558
10 1615 1699
10 1654 1831
0 1689 1985
3 1770 2139
16 1856 2306
6 1969 2508
10 2072 2740
3 2171 3038
16 2264 3372
1571 1603 970
1538 1609 996
1510 1638 1044
1452 1644 1134
1327 1660 1240
1143 1693 1365
922 1728 1529
418 1792 1763
6 1818 1885
6 1847 2036
0 1911 2194
19 1975 2390
26 2081 2582
3 2181 2772
6 2264 3032
3 2332 3408
1725 1773 1031
1705 1783 1063
1677 1795 1105
1625 1805 1182
1551 1824 1288
1400 1856 1404
1175 1889 1535
935 1946 1734
238 2011 1943
10 2036 2097
10 2084 2264
6 2145 2441
0 2203 2637
0 2319 2842
10 2402 3080
6 2431 3408
1908 1953 1111
1892 1956 1140
1856 1979 1166
1815 1998 1237
1734 2017 1343
1628 2043 1458
1468 2065 1590
1217 2113 1725
906 2152 1930
0 2255 2161
13 2268 2345
0 2325 2508
0 2390 2698
16 2457 2907
16 2569 3147
3 2605 3462
2104 2168 1188
2075 2171 1208
2065 2194 1246
2027 2197 1317
1956 2229 1391
1847 2264 1506
1712 2277 1641
1465 2303 1763
1208 2338 1933
803 2380 2158
0 2473 2425
16 2521 2601
3 2563 2775
16 2627 2977
0 2740 3186
0 2794 3517
2313 2409 1278
2309 2418 1307
2296 2425 1346
2251 2428 1400
2197 2444 1474
2097 2470 1564
1953 2499 1693
1766 2505 1815
1468 2541 1950
1172 2595 2158
610 2643 2418
16 2727 2643
13 2765 2842
13 2830 3035
19 2916 3273
13 3006 3536
2550 2662 1397
2547 2659 1420
2544 2672 1436
2499 2679 1516
2447 2695 1567
2341 2691 1657
2222 2727 1754
2036 2740 1866
1847 2768 2046
1500 2801 2165
1124 2849 2370
144 2897 2640
6 2997 2900
13 3042 3099
0 3109 3318
0 3225 3607
2823 2932 1564
2801 2929 1577
2794 2939 1606
2752 2939 1641
2704 2955 1718
2624 2955 1763
2515 2968 1866
2338 2997 1953
2155 3006 2094
1914 3029 2277
1548 3070 2412
1076 3125 2614
6 3164 2871
6 3286 3176
0 3334 3372
10 3449 3677
3131 3228 1815
3086 3215 1834
3070 3231 1840
3038 3231 1876
3006 3247 1933
2932 3244 1975
2813 3241 2017
2675 3247 2091
2454 3260 2174
2283 3276 2357
1953 3314 2496
1583 3356 2666
1025 3395 2878
13 3440 3138
3 3594 3456
16 3684 3742
3421 3549 2184
3404 3533 2168
3398 3552 2190
3356 3549 2200
3327 3536 2219
3244 3549 2248
3164 3549 2296
3022 3549 2319
2842 3555 2370
2598 3562 2444
2460 3568 2653
2107 3604 2791
1699 3661 2952
951 3700 3176
13 3742 3440
13 3947 3787
877 681 655
851 687 713
735 719 829
568 748 906
353 793 1021
6 858 1134
10 925 1256
0 1018 1420
0 1086 1538
3 1172 1702
0 1275 1869
10 1381 2088
16 1538 2328
6 1664 2605
3 1821 2942
0 2014 3331
931 755 703
903 784 748
800 793 845
662 825 954
469 861 1063
106 925 1185
13 1002 1310
0 1073 1433
6 1150 1561
6 1224 1715
10 1310 1866
0 1426 2081
0 1554 2338
13 1689 2634
6 1856 2955
3 2043 3311
1031 874 768
967 886 825
903 903 903
771 922 1005
588 976 1143
279 1024 1243
13 1073 1388
0 1137 1513
6 1211 1628
6 1285 1750
16 1378 1917
0 1484 2110
16 1609 2338
6 1744 2634
3 1895 2945
16 2068 3331
1114 986 816
1073 993 864
1018 1034 951
909 1063 1082
713 1082 1163
446 1121 1310
0 1172 1416
6 1224 1551
0 1298 1676
3 1355 1805
10 1455 1969
10 1577 2149
16 1683 2380
3 1824 2666
16 1946 2958
0 2107 3331
1220 1124 835
1185 1140 899
1140 1172 964
1031 1195 1063
854 1246 1204
607 1259 1336
67 1275 1452
0 1339 1593
3 1394 1738
3 1465 1866
3 1548 2020
0 1641 2216
6 1776 2409
0 1895 2675
0 2014 2993
6 2142 3347
1355 1291 890
1314 1282 919
1288 1327 1002
1175 1339 1076
1041 1362 1195
784 1433 1413
369 1413 1516
22 1452 1670
0 1510 1773
3 1571 1937
0 1664 2097
0 1731 2274
10 1876 2476
0 1985 2711
3 2084 3006
0 2216 3372
1471 1442 931
1465 1442 944
1426 1474 1015
1349 1490 1114
1224 1503 1230
1028 1551 1368
671 1628 1587
83 1612 1725
3 1651 1834
3 1696 1966
0 1792 2168
6 1856 2316
10 1959 2528
10 2072 2740
3 2171 3032
0 2284 3376
1612 1609 960
1615 1615 1024
1561 1625 1063
1510 1654 1156
1404 1673 1243
1240 1699 1391
1050 1763 1535
591 1802 1760
0 1824 1914
0 1863 2030
10 1914 2197
0 1998 2396
19 2062 2579
10 2190 2788
0 2271 3051
16 2345 3421
1766 1779 1031
1766 1783 1076
1754 1786 1143
1696 1824 1198
1596 1853 1298
1474 1882 1442
1236 1914 1548
1031 1959 1725
450 2020 1930
3 2046 2149
13 2081 2280
3 2149 2454
6 2219 2640
6 2325 2849
13 2406 3083
10 2428 3408
1940 1959 1118
1930 1972 1140
1885 1998 1179
1879 2004 1259
1795 2027 1371
1673 2059 1487
1513 2075 1590
1265 2110 1731
1005 2174 1956
42 2255 2197
0 2274 2351
3 2335 2537
0 2380 2698
3 2473 2913
16 2569 3147
0 2611 3466
2168 2184 1220
2126 2190 1237
2126 2206 1275
2071 2216 1333
2014 2235 1410
1892 2264 1500
1731 2284 1619
1535 2296 1779
1272 2351 1956
919 2406 2171
6 2480 2431
19 2537 2598
10 2576 2785
16 2627 2984
13 2727 3212
0 2794 3517
2383 2435 1310
2357 2435 1310
2335 2447 1343
2303 2447 1404
2245 2454 1487
2155 2480 1577
2014 2492 1709
1824 2528 1834
1516 2550 1966
1246 2601 2158
732 2663 2383
32 2743 2659
0 2791 2855
22 2839 3067
6 2900 3263
6 2987 3555
2605 2675 1420
2601 2666 1439
2573 2675 1468
2531 2698 1513
2499 2707 1587
2396 2714 1667
2267 2724 1766
2091 2740 1869
1908 2759 2049
1551 2810 2178
1214 2862 2364
462 2910 2643
16 2997 2919
16 3058 3115
0 3122 3324
16 3212 3604
2862 2939 1590
2858 2942 1606
2830 2952 1638
2791 2955 1686
2752 2952 1734
2682 2964 1789
2544 2977 1889
2386 2993 1924
2190 3019 2100
1969 3029 2264
1612 3061 2422
1179 3125 2611
68 3154 2887
16 3276 3196
0 3334 3372
16 3443 3677
3135 3231 1824
3125 3250 1840
3106 3234 1869
3083 3228 1895
3029 3237 1953
2968 3253 1994
2865 3257 2043
2695 3263 2123
2479 3273 2174
2328 3282 2345
2004 3311 2502
1667 3359 2685
1147 3408 2894
3 3456 3164
0 3591 3456
3 3697 3742
3433 3543 2184
3433 3543 2210
3421 3549 2216
3398 3552 2248
3343 3539 2261
3286 3559 2306
3189 3562 2309
3054 3549 2354
2884 3565 2374
2634 3565 2438
2480 3575 2666
2136 3620 2804
1741 3658 2952
1053 3706 3148
19 3738 3440
0 3967 3790
1082 784 719
1069 761 771
996 803 899
845 813 1009
607 854 1098
318 899 1204
0 989 1339
0 1053 1471
0 1127 1603
3 1220 1731
0 1317 1911
0 1436 2097
0 1574 2348
0 1715 2630
0 1853 2952
0 2065 3318
1121 822 739
1076 838 813
1037 870 928
906 890 1018
697 903 1124
414 970 1262
6 1028 1375
10 1089 1497
3 1169 1632
0 1265 1754
0 1352 1927
0 1474 2104
3 1590 2357
6 1731 2637
3 1882 2961
6 2065 3324
1192 931 809
1143 938 854
1098 944 938
992 976 1066
803 1002 1179
549 1041 1304
32 1092 1378
0 1150 1529
0 1230 1667
6 1320 1795
6 1413 1934
6 1526 2142
0 1641 2386
3 1779 2650
3 1927 2964
22 2094 3347
1275 1021 867
1230 1041 899
1172 1060 999
1095 1095 1095
935 1124 1224
668 1143 1346
174 1185 1452
0 1243 1577
0 1307 1699
16 1371 1837
6 1471 2007
0 1599 2190
6 1709 2396
35 1844 2685
3 1978 2968
10 2139 3343
1352 1153 867
1330 1172 922
1304 1214 1015
1208 1224 1102
1047 1272 1262
787 1278 1368
447 1294 1519
6 1359 1654
0 1413 1757
0 1484 1901
3 1554 2030
0 1664 2235
13 1789 2441
3 1927 2701
10 2040 3013
10 2178 3353
1471 1310 909
1442 1327 951
1423 1343 1018
1352 1381 1137
1211 1400 1240
951 1445 1420
646 1442 1558
77 1468 1664
10 1529 1818
0 1587 1950
0 1660 2123
3 1750 2293
6 1873 2496
6 2014 2717
13 2120 3029
0 2248 3356
1596 1471 960
1574 1484 983
1558 1513 1066
1477 1510 1137
1362 1545 1278
1156 1590 1381
870 1644 1603
488 1641 1731
6 1664 1872
3 1721 2004
3 1776 2168
13 1872 2354
0 1972 2534
26 2094 2775
6 2210 3054
10 2306 3398
1725 1644 1021
1722 1651 1047
1667 1657 1082
1628 1677 1179
1529 1696 1278
1384 1709 1410
1163 1763 1570
819 1834 1808
238 1828 1921
3 1873 2062
16 1930 2245
19 1998 2406
0 2091 2598
3 2190 2788
13 2293 3064
10 2370 3398
1860 1802 1060
1853 1818 1102
1831 1818 1153
1773 1847 1224
