assets/AquaAndBrown.3DL
#Created by: Adobe Photoshop Export Color Lookup Plugin
#Description: koe3
0 205 409 614 818 1023
514 514 514
353 662 832
0 870 1214
0 1121 1689
6 1471 2306
0 1991 3308
903 935 739
707 1015 1005
6 1137 1391
0 1359 1802
0 1644 2354
22 2081 3340
1359 1410 906
1236 1468 1079
385 1603 1529
6 1686 1959
3 1966 2502
3 2251 3360
1869 1946 1089
1792 1985 1240
1410 2052 1577
0 2248 2158
3 2367 2672
3 2605 3462
2531 2643 1378
2479 2675 1494
2203 2701 1738
1468 2794 2161
0 3003 2900
6 3221 3604
3404 3533 2168
3356 3549 2200
3151 3536 2290
2579 3546 2431
1657 3665 2945
0 3934 3774
1082 784 719
845 813 1009
0 989 1339
3 1220 1731
0 1574 2348
0 2065 3318
1275 1021 867
1095 1095 1095
174 1185 1452
16 1371 1837
6 1709 2396
10 2139 3343
1596 1471 960
1477 1510 1137
870 1644 1603
3 1721 2004
0 1972 2534
10 2306 3398
2036 1995 1166
1956 2014 1282
1625 2097 1641
450 2268 2197
6 2396 2730
0 2608 3462
2650 2691 1445
2595 2720 1545
2348 2752 1779
1660 2820 2194
3 3022 2926
19 3215 3607
3488 3549 2229
3437 3549 2264
3257 3559 2341
2691 3562 2467
1857 3661 2987
0 3960 3816
1757 980 816
1689 941 1044
1150 1095 1599
13 1282 1943
0 1689 2479
0 2216 3385
1824 1208 1041
1754 1217 1108
1304 1265 1628
6 1445 2014
3 1792 2553
6 2274 3401
2036 1587 1227
1982 1632 1375
1712 1712 1712
700 1786 2152
0 2020 2669
19 2444 3456
2425 2068 1269
2367 2120 1410
2145 2197 1744
1400 2348 2280
3 2428 2810
0 2640 3462
2974 2756 1612
2916 2785 1677
2717 2826 1917
2222 2871 2332
658 3067 3003
26 3215 3648
3703 3600 2415
3655 3604 2444
3491 3604 2489
3093 3632 2646
2354 3697 3074
0 3967 3822
2412 1278 1024
2409 1198 1060
2187 1442 1786
1561 1439 2216
6 1725 2752
0 2296 3517
2463 1449 1166
2415 1449 1249
2255 1535 1776
1654 1551 2229
13 1834 2743
6 2374 3552
2582 1824 1484
2541 1847 1587
2451 1815 1715
1937 1889 2306
482 2084 2833
16 2499 3581
2878 2235 1660
2842 2258 1773
2688 2329 2017
2425 2425 2425
1134 2473 2926
6 2711 3629
3334 2826 1827
3331 2842 1921
3244 2900 2161
2929 2990 2499
2113 3131 3061
0 3202 3713
3979 3649 2724
3944 3668 2752
3883 3706 2849
3629 3719 2942
3080 3738 3234
1282 3986 3880
3102 1644 1298
3090 1606 1352
3077 1413 1606
2778 1827 2483
2104 1953 2964
1252 2492 3687
3147 1770 1420
3138 1760 1477
3144 1551 1596
2823 1966 2486
2197 2052 2961
1387 2557 3681
3205 2068 1673
3199 2088 1763
3170 2075 1892
2916 2264 2541
2406 2309 3022
1625 2724 3710
3372 2505 2088
3337 2518 2171
3276 2589 2354
3212 2576 2476
2756 2704 3119
1843 2942 3764
3697 2971 2386
3687 3003 2444
3610 3035 2611
3494 3125 2855
3237 3237 3205
1965 3302 3861
4095 3732 3086
4095 3738 3128
4095 3755 3215
4079 3809 3318
3812 3864 3475
3244 4015 3970
3790 2088 1734
3806 2104 1766
3854 1953 1799
3636 2277 2653
3398 2483 3260
3147 2987 3822
3825 2219 1850
3812 2219 1901
3851 2113 1911
3690 2306 2640
3427 2557 3244
3189 3038 3812
3870 2496 2123
3835 2518 2165
3825 2496 2271
3835 2370 2521
3533 2785 3314
3311 3170 3854
3947 2887 2502
3950 2903 2550
3886 2932 2650
3906 2929 2759
3661 3141 3379
3514 3414 3873
4060 3318 2990
4053 3337 3006
4031 3359 3096
4015 3449 3257
3983 3491 3449
3803 3738 3979
4079 3870 3581
4095 3886 3597
4089 3906 3645
4082 3947 3742
4095 3992 3864
4095 4095 4063
